!!!COM: Anonymous
!!!CDT: [?]
!!!OTL@@LAT: Huc omnes qui pugnatis
!!!TXO: Latin
!!!ODT: 
!!!GTL: Hymnbook E
!!!ARL: Opactwo św. Wojciecha, Staniątki 
!!!voices:	3
**kern	**kern	**text	**kern	**text
*staff3	*staff2	*staff2	*staff1	*staff1
*I"Basso	*I"Canto II	*	*I"Canto I	*
=1-	=1-	=1-	=1-	=1-
*clefF4	*clefG2	*	*clefG2	*
*k[b-]	*k[b-]	*	*k[b-]	*
*met(c|)	*met(c|)	*	*met(c|)	*
*M2/2	*M2/2	*	*M2/2	*
2BB-/	1r	.	4.f/	Huc
.	.	.	8b-\	hu[c]
4E-\	.	.	8g/L	om-
.	.	.	8a/J	.
4D\	.	.	4b-\	-nes
=2	=2	=2	=2	=2
2F\	1r	.	8cc\L	qui
.	.	.	8dd\J	.
.	.	.	8ee-\L	pug-
.	.	.	8ff\J	.
2BB-/	.	.	4dd\	-na-
.	.	.	4b-\	-tis
=3	=3	=3	=3	=3
2BB-/	1r	.	1r	.
8AA/L	.	.	.	.
8FF/J	.	.	.	.
4C/	.	.	.	.
=4	=4	=4	=4	=4
4.FF/	1r	.	4.f/	ter-
8D\	.	.	8b-\	-ra
4E-\	.	.	8g/L	mor-
.	.	.	8a/J	.
4BB-/	.	.	4b-\	-tis
=5	=5	=5	=5	=5
2FF/	1r	.	8cc\L	for-
.	.	.	8dd\J	.
.	.	.	8ee-\L	-mi-
.	.	.	8ff\J	.
2BB-/	.	.	4dd\	-da-
.	.	.	4b-\	-tis
=6	=6	=6	=6	=6
2BB-/	1r	.	1r	.
!!linebreak:original
8F\L	.	.	.	.
8BB-\J	.	.	.	.
4FF/	.	.	.	.
=7||	=7||	=7||	=7||	=7||
!!linebreak:original
2BB-/	8r	.	8r	.
.	16b-\	In-	16dd\	In-
.	16cc\	-vo-	16ee-\	-vo-
.	8dd\	-ca-	8ff\	-ca-
.	16ee-\LL	-te	16gg\LL	-te
.	16dd\JJ	.	16ff\JJ	.
8C\L	4cc\	Ma-	4ee-\	Ma-
8F\J	.	.	.	.
4BB-/	8b-\	-ri-	8dd\	-ri-
.	8b-\	-am	8dd\	-am
=8	=8	=8	=8	=8
8AA/L	16a/LL	con-	16cc\LL	con-
.	16b-/	.	16dd\	.
8GG/	16g/	.	16b-\	.
.	16a/JJ	.	16cc\JJ	.
8FF/	8.f/	-fu-	8.a/	-fu-
8C/J	.	.	.	.
.	16e/	-gi-	16g/	-gi-
4FF/	4f/	-te	4f/	-te
8F\L	4dd\	con	4ff\	con
8D\J	.	.	.	.
=9	=9	=9	=9	=9
!!linebreak:original
2E-\	16cc\LL	fu-	16ee-\LL	fu-
.	16dd\	.	16ff\	.
.	16b-\	.	16dd\	.
.	16cc\JJ	.	16ee-\JJ	.
.	16a/LL	.	16cc\LL	.
.	16b-/	.	16dd\	.
.	16g/	.	16b-\	.
.	16a/JJ	.	16cc\JJ	.
4.F\	8.f/	.	8.a/	.
.	16g/	-gi-	16b-\	-gi-
.	8a/L	-te	16cc/LL	-te
.	.	.	16f/	.
8E-\	16g/L	.	16g/	.
.	16f/JJ	.	16a/JJ	.
=10	=10	=10	=10	=10
8D/L	16b-\LL	ad	16b-\LL	ad
.	16a\	.	16cc\	.
8C/	16b-\	.	16dd\	.
.	16cc\JJ	.	16ee-\JJ	.
8BB-/	8dd\	.	8ff\	.
8E-/J	8b-\	Ma-	8dd\	Ma-
4F\	8.b-/L	-ri-	4cc\	-ri-
.	16a/Jk	.	.	.
8BB-/L	8b-\	-am.	8b-\	-am.
8AA/J	8r	.	8r	.
=11	=11	=11	=11	=11
8GG/L	1r	.	1r	.
8E-/J	.	.	.	.
4F\	.	.	.	.
2BB-;/	.	.	.	.
==	==	==	==	==
*-	*-	*-	*-	*-
!!!GTL: Hymnbook E
!!!EFL: 99/117
!!!YEM: Creative Commons CC/BY/NC/SA 4.0
!!!ENC: Marcin Konik
!!!END: 
!!!EED: Marcin Konik
!!!EEV: 
!!!ONB: Translated from MusicXML and edited by Marcin Konik
!!!CharacterEncoding: utf-8
!!!RDF**kern: l=long note in original notation
!!!RDF**kern: i=editorial accidental
!!muse2ps: z14jc180F
